X: 22222
T: La Cosa Mulligan
R: reel
M: 4/4
K: Dmajor
|D2 FD EDFD|DEFD EA A2|cE E2 GABd|ceAc dBAF|
D2 FD EDFD|DEFD EFG2|AcBc dBAG|FAEG FD~D2:|
fddc d3e|fd d2edcB|A2cA BAcB|ABcA Bcde|
fddc d3e|fd d2 edcB|Aece gecd|eddc d4:|
~A3 B ABAG|FAAF GFED|~E3F GFED|Egec dBAF|
D2FD EDFE|DEFD EFG2|Ac ~c2 dBAG|FGEG D4||

